src/assets/aircslogo.svg

<?xml version="1.0" encoding="UTF-8" standalone="no"?>
<svg
   width="16"
   height="5"
   viewBox="0 0 4.2333332 1.3229167"
   version="1.1"
   id="svg8"
   xmlns="http://www.w3.org/2000/svg"
   xmlns:svg="http://www.w3.org/2000/svg"
   xmlns:rdf="http://www.w3.org/1999/02/22-rdf-syntax-ns#"
   xmlns:cc="http://creativecommons.org/ns#"
   xmlns:dc="http://purl.org/dc/elements/1.1/">
  <defs
     id="defs2" />
  <metadata
     id="metadata5">
    <rdf:RDF>
      <cc:Work
         rdf:about="">
        <dc:format>image/svg+xml</dc:format>
        <dc:type
           rdf:resource="http://purl.org/dc/dcmitype/StillImage" />
        <dc:title />
      </cc:Work>
    </rdf:RDF>
  </metadata>
  <g
     id="layer1">
    <path
       id="rect835"
       style="fill:#ff0000;fill-opacity:1;stroke:none;stroke-width:0.102047;stroke-linecap:round;stroke-linejoin:round;stroke-miterlimit:4;stroke-dasharray:0.102047, 0.204094;stroke-dashoffset:0"
       d="M 4,0 V 1 H 5 V 0 Z M 0,1 V 2 3 4 5 H 1 V 4 H 2 V 5 H 3 V 1 H 1 Z M 1,2 H 2 V 3 H 1 Z M 4,2 V 5 H 5 V 2 Z M 6,2 V 3 5 H 7 V 3 H 8 V 2 H 7 Z"
       transform="scale(0.26458333)" />
    <path
       id="rect851"
       style="fill:#646464;fill-opacity:1;stroke:none;stroke-width:0.102047;stroke-linecap:round;stroke-linejoin:round;stroke-miterlimit:4;stroke-dasharray:0.102047, 0.204094;stroke-dashoffset:0"
       d="m 9,0 v 1 4 h 1 2 V 4 H 10 V 1 h 2 V 0 h -2 z m 4,0 v 1 2 h 1 1 v 1 h -2 v 1 h 2 1 V 4 2 H 14 V 1 h 2 V 0 Z"
       transform="scale(0.26458333)" />
  </g>
</svg>

<?xml version="1.0" encoding="UTF-8" standalone="no"?>
<svg
   xmlns:dc="http://purl.org/dc/elements/1.1/"
   xmlns:cc="http://creativecommons.org/ns#"
   xmlns:rdf="http://www.w3.org/1999/02/22-rdf-syntax-ns#"
   xmlns:svg="http://www.w3.org/2000/svg"
   xmlns="http://www.w3.org/2000/svg"
   xmlns:sodipodi="http://sodipodi.sourceforge.net/DTD/sodipodi-0.dtd"
   xmlns:inkscape="http://www.inkscape.org/namespaces/inkscape"
   width="16"
   height="5"
   viewBox="0 0 4.2333332 1.3229167"
   version="1.1"
   id="svg8"
   inkscape:version="1.0.2 (e86c870879, 2021-01-15, custom)"
   sodipodi:docname="aircslogo.svg">
  <defs
     id="defs2" />
  <sodipodi:namedview
     id="base"
     pagecolor="#ffffff"
     bordercolor="#666666"
     borderopacity="1.0"
     inkscape:pageopacity="0.0"
     inkscape:pageshadow="2"
     inkscape:zoom="63.356765"
     inkscape:cx="-2.5004981"
     inkscape:cy="9.0102711"
     inkscape:document-units="mm"
     inkscape:current-layer="layer1"
     inkscape:document-rotation="0"
     showgrid="true"
     units="px"
     inkscape:window-width="3840"
     inkscape:window-height="2091"
     inkscape:window-x="0"
     inkscape:window-y="32"
     inkscape:window-maximized="1">
    <inkscape:grid
       type="xygrid"
       id="grid833" />
  </sodipodi:namedview>
  <metadata
     id="metadata5">
    <rdf:RDF>
      <cc:Work
         rdf:about="">
        <dc:format>image/svg+xml</dc:format>
        <dc:type
           rdf:resource="http://purl.org/dc/dcmitype/StillImage" />
        <dc:title></dc:title>
      </cc:Work>
    </rdf:RDF>
  </metadata>
  <g
     inkscape:label="Layer 1"
     inkscape:groupmode="layer"
     id="layer1">
    <path
       id="rect835"
       style="fill:#ff0000;fill-opacity:1;stroke:none;stroke-width:0.102047;stroke-linecap:round;stroke-linejoin:round;stroke-miterlimit:4;stroke-dasharray:0.102047, 0.20409400000000000;stroke-dashoffset:0"
       d="M 4 0 L 4 1 L 5 1 L 5 0 L 4 0 z M 0 1 L 0 2 L 0 3 L 0 4 L 0 5 L 1 5 L 1 4 L 2 4 L 2 5 L 3 5 L 3 1 L 1 1 L 0 1 z M 1 2 L 2 2 L 2 3 L 1 3 L 1 2 z M 4 2 L 4 5 L 5 5 L 5 2 L 4 2 z M 6 2 L 6 3 L 6 5 L 7 5 L 7 3 L 8 3 L 8 2 L 7 2 L 6 2 z "
       transform="scale(0.26458333)" />
    <path
       id="rect851"
       style="fill:#646464;fill-opacity:1;stroke:none;stroke-width:0.102047;stroke-linecap:round;stroke-linejoin:round;stroke-miterlimit:4;stroke-dasharray:0.102047, 0.20409400000000000;stroke-dashoffset:0"
       d="M 9 0 L 9 1 L 9 5 L 10 5 L 12 5 L 12 4 L 10 4 L 10 1 L 12 1 L 12 0 L 10 0 L 9 0 z M 13 0 L 13 1 L 13 3 L 14 3 L 15 3 L 15 4 L 13 4 L 13 5 L 15 5 L 16 5 L 16 4 L 16 2 L 14 2 L 14 1 L 16 1 L 16 0 L 13 0 z "
       transform="scale(0.26458333)" />
  </g>
</svg>
